**kern	**kern
*part1	*part1
*staff2	*staff1
*I"Piano	*
*clefF4	*clefG2
*k[b-e-a-]	*k[b-e-a-]
=1	=1
4E-	2.gg 2.bb-
4G 4B- 4e-	.
4G 4B- 4e-	.
=	=
4E-	4gg 4bb-
4G 4B- 4e-	4ee- 4gg
4G 4B- 4e-	4b- 4ee-
=	=
4D	4g 4bn
4F 4G 4Bn	4b 4dd
4F 4G 4B	4dd 4gg
=	=
4C	4e- 4g
4E- 4G 4c	4.g 4.cc
4E- 4G 4c	.
.	8cc 8ee-
=	=
4C	2ee- 2gg
4E- 4G 4c	.
4E- 4G 4c	4r
=	=
4BB-	4g 4b- 4ee-
4G 4B- 4e-	4g 4b- 4dd
4G 4B- 4e-	4g 4b- 4ee-
=	=
4BB-	4ee- 4gg 4bb-
4G 4B- 4e-	4b- 4ee- 4gg
4G 4B- 4e-	4g 4b- 4ee-
=	=
4FF 4F	4f 4an 4cc
2BBB- 2BB-	4.a-X 4.dd
.	8bb-
=	=
*-	*-
!!!system-decoration: {(s1,s2)}
